icons/svg/functional-icons/point_purple_1.svg

<svg width="48" height="48" fill="none" version="1.1" viewBox="0 0 48 48" xmlns="http://www.w3.org/2000/svg">
 <namedview bordercolor="#666666" borderopacity="1" gridtolerance="10" guidetolerance="10" objecttolerance="10" pagecolor="#ffffff" showgrid="false"/>
 <path d="m24 36c6.6274 0 12-5.3726 12-12s-5.3726-12-12-12-12 5.3726-12 12 5.3726 12 12 12z" fill="#FEFEFE" fill-opacity=".287"/>
 <path d="m24 32c4.4183 0 8-3.5817 8-8s-3.5817-8-8-8-8 3.5817-8 8 3.5817 8 8 8z" fill="#c70bff"/>
</svg>

<svg xmlns:ns0="http://sodipodi.sourceforge.net/DTD/sodipodi-0.dtd" xmlns:ns1="http://www.inkscape.org/namespaces/inkscape" xmlns:rdf="http://www.w3.org/1999/02/22-rdf-syntax-ns#" width="48" height="48" viewBox="0 0 48 48" fill="none" version="1.1" id="svg6" ns0:docname="point_purple_1.svg" ns1:version="0.92.5 (2060ec1f9f, 2020-04-08)" xmlns="http://www.w3.org/2000/svg">
  <metadata id="metadata12">
    <RDF>
      <Work rdf:about="">
        <format>image/svg+xml</format>
        <type rdf:resource="http://purl.org/dc/dcmitype/StillImage" />
      </Work>
    </RDF>
  </metadata>
  <defs id="defs10" />
  <namedview pagecolor="#ffffff" bordercolor="#666666" borderopacity="1" objecttolerance="10" gridtolerance="10" guidetolerance="10" ns1:pageopacity="0" ns1:pageshadow="2" ns1:window-width="1105" ns1:window-height="480" id="namedview8" showgrid="false" ns1:zoom="4.9166667" ns1:cx="24" ns1:cy="24" ns1:window-x="0" ns1:window-y="0" ns1:window-maximized="0" ns1:current-layer="svg6" />
  <path d="M24 36C30.6274 36 36 30.6274 36 24C36 17.3726 30.6274 12 24 12C17.3726 12 12 17.3726 12 24C12 30.6274 17.3726 36 24 36Z" fill="#FEFEFE" fill-opacity="0.286996" id="path2" />
  <path d="M24 32C28.4183 32 32 28.4183 32 24C32 19.5817 28.4183 16 24 16C19.5817 16 16 19.5817 16 24C16 28.4183 19.5817 32 24 32Z" fill="#CB0F0F" id="path4" style="fill:#c70bff;fill-opacity:1" />
</svg>
